X: 41
T:Salamanca Reel, The
R:reel
D:Bothy Band 1975.
Z:id:hn-reel-73
M:C|
L:1/8
K:D
dB|:AD (3FED AD (3FED|Adcd fedc|BE~E2 BE~E2|Beeg fede|
fB~B2 fB~B2|fgfe dfag|fdec dBAG|1 FGEF D2dB:|2 FGEF D2fg||
|:afdg bgeg|fdec dcBc|Addc defg|(3aba gb a2fg|
~a3f ~g3e|~f3e dfag|fdec dBAG|1 FGEF D2fg:|2 FGEF D2dB||
